src/assets/imgs/open_eye.svg

<?xml version="1.0" ?><svg height="24" viewBox="0 0 24 24" width="24" xmlns="http://www.w3.org/2000/svg"><path d="M12,4 C14.7275481,4 17.3356792,5.4306247 19.76629,7.78114976 C20.5955095,8.58304746 21.3456935,9.43915664 22.0060909,10.2956239 C22.4045936,10.8124408 22.687526,11.2189945 22.8424353,11.4612025 L23.1870348,12 L22.8424353,12.5387975 C22.687526,12.7810055 22.4045936,13.1875592 22.0060909,13.7043761 C21.3456935,14.5608434 20.5955095,15.4169525 19.76629,16.2188502 C17.3356792,18.5693753 14.7275481,20 12,20 C9.27245185,20 6.66432084,18.5693753 4.23371003,16.2188502 C3.40449054,15.4169525 2.65430652,14.5608434 1.99390911,13.7043761 C1.59540638,13.1875592 1.31247398,12.7810055 1.15756471,12.5387975 L0.812965202,12 L1.15756471,11.4612025 C1.31247398,11.2189945 1.59540638,10.8124408 1.99390911,10.2956239 C2.65430652,9.43915664 3.40449054,8.58304746 4.23371003,7.78114976 C6.66432084,5.4306247 9.27245185,4 12,4 Z M20.4222529,11.5168761 C19.8176112,10.7327184 19.1301624,9.94820254 18.37596,9.21885024 C16.2825083,7.1943753 14.1050769,6 12,6 C9.89492315,6 7.71749166,7.1943753 5.62403997,9.21885024 C4.86983759,9.94820254 4.18238879,10.7327184 3.57774714,11.5168761 C3.44715924,11.6862352 3.32648802,11.8478224 3.21616526,12 C3.32648802,12.1521776 3.44715924,12.3137648 3.57774714,12.4831239 C4.18238879,13.2672816 4.86983759,14.0517975 5.62403997,14.7811498 C7.71749166,16.8056247 9.89492315,18 12,18 C14.1050769,18 16.2825083,16.8056247 18.37596,14.7811498 C19.1301624,14.0517975 19.8176112,13.2672816 20.4222529,12.4831239 C20.5528408,12.3137648 20.673512,12.1521776 20.7838347,12 C20.673512,11.8478224 20.5528408,11.6862352 20.4222529,11.5168761 Z M12,16 C9.790861,16 8,14.209139 8,12 C8,9.790861 9.790861,8 12,8 C14.209139,8 16,9.790861 16,12 C16,14.209139 14.209139,16 12,16 Z M12,14 C13.1045695,14 14,13.1045695 14,12 C14,10.8954305 13.1045695,10 12,10 C10.8954305,10 10,10.8954305 10,12 C10,13.1045695 10.8954305,14 12,14 Z" fill-rule="evenodd"/></svg>

<svg height="24" viewBox="0 0 24 24" width="24" xmlns="http://www.w3.org/2000/svg">
  <path d="M12 4c2.728 0 5.336 1.43 7.766 3.781.83.802 1.58 1.658 2.24 2.515.399.516.682.923.836 1.165l.345.539-.345.539c-.154.242-.437.649-.836 1.165-.66.857-1.41 1.713-2.24 2.515C17.336 18.569 14.728 20 12 20s-5.336-1.43-7.766-3.781a23 23 0 0 1-2.24-2.515 18 18 0 0 1-.836-1.165L.813 12l.345-.539c.154-.242.437-.649.836-1.165.66-.857 1.41-1.713 2.24-2.515C6.664 5.431 9.272 4 12 4m8.422 7.517a21 21 0 0 0-2.046-2.298C16.283 7.194 14.106 6 12 6 9.895 6 7.717 7.194 5.624 9.219A21.3 21.3 0 0 0 3.216 12q.165.229.362.483a21 21 0 0 0 2.046 2.298C7.717 16.806 9.894 18 12 18c2.105 0 4.283-1.194 6.376-3.219A21.3 21.3 0 0 0 20.784 12q-.165-.229-.362-.483M12 16a4 4 0 1 1 0-8 4 4 0 0 1 0 8m0-2a2 2 0 1 0 0-4 2 2 0 0 0 0 4" fill-rule="evenodd"/>
</svg>
